X:196
T:Mairi's Wedding
M:4/4
L:1/8
K:G
K:G
|: "G"D3E D2 E2 | G2 A2 B4 |  "C"A2 G2 "C"E2 G2 | "D"B2 A2 "D"Bd3 |
  "G"D3E D2 E2 | G2 A2 B4 |  "C"A2 G2 E2 C2 | "D"D4 D4 :|
|: "G"d4 d3e | d2 c2 "Em"B4 |  "C"A2 G2 "Am"E2 G2 | "D"B2 A2 Bd3 |
  "G"d4 d3e | d2 c2 "Em"B4 |  "C"A2 G2 "C#dim"E2 C2 | "D"D4 D4 :|
